**kern	**kern	**dynam
*part1	*part1	*part1
*staff2	*staff1	*
*I"Piano	*	*
*clefF4	*clefG2	*
*k[b-]	*k[b-]	*
=1	=1	=1
8D':L) 8d:	8f'L) 8a	.
8d'J	8f'J 8a	.
4d'	4f' 4a	.
(4d	(4dd 4ff	.
=	=	=
8F'L) 8f	8e-X'L) 8a 8cc	.
8f'J	8e-'J 8a 8cc	.
4f'	4e-' 4a 4cc	.
(4BB- 4B-	(4d 4b- 4dd	.
=	=	=
8C':L) 8B-: 8c:	8en'L) 8g	.
8B-'J 8c	8e'J 8g	.
4B-' 4c	4e' 4g	.
4B- 4c	4e 4a	.
=	=	=
8C':L 8B-: 8c:	8e'L 8g 8b-	.
8B-'J 8c	8e'J 8g 8b-	.
4B-' 4c	4e' 4g 4b-	.
4B- 4c	4e 4g 4bn	.
=	=	=
8FF':L 8A:	8c'L 8f 8cc	.
8F'J 8A	8c'J 8f 8cc	.
4F' 4A	4c' 4f 4cc	.
4F 4A	4c 4f 4cc	.
=	=	=
8FF':L 8A:	8c'L 8f 8cc	.
8F'J 8A	8c'J 8f 8cc	.
4F' 4A	4c' 4f 4cc	.
!	!	!LO:DY:a
(4FF	(4A 4c 4f	p
=:|!	=:|!	=:|!
!	!	!LO:DY:a
8FF':L) 8A:	8c'L) 8f 8cc	>
8F'J 8A	8c'J 8f 8cc	.
4F' 4A	4c' 4f 4cc	.
4F' 4A	4c' 4f 4cc	]
==	==	==
*-	*-	*-
!!!system-decoration: {(s1,s2)}
